X: 26218
T: Med Ludvig I Sekken
R: waltz
M: 3/4
K: Emajor
E2 F2|G3 B B2|B2 e2 d2|dc B2 A2|B2 E2 F2|
G3 c c2|c2 B2 G2|c2 B2 G2|F2 E2 F2|
G3 B B2|B2 e2 d2|dc B2 A2|B2 E2 F2|
G2 c2 B2|G2 F2 E2|E2 EF E<D|E2:|
c2 d2|e3 e e2|e2 c2 d2|ed c2 B2|G2 c2 d2|
e3 e e2|e2 f2 g2|g2 f2 e2|f2 c2 d2|
e3 e e2|e2 c2 d2|ed c2 B2|G2 E2 F2|
G2 c2 B2|G2 F2 E2|E2 EF E<D|E2||
C2 D2|E3 E E2|E2 C2 D2|ED C2 B,2|G,2 C2 D2|
E3 E E2|E2 F2 G2|G2 F2 E2|F2 C2 D2|
E3 E E2|E2 C2 D2|ED C2 B,2|G,2 E2 F2|
G2 c2 B2|G2 F2 E2|E2 EF E<D|E2||

